static/img/kroki/a5db10838e3a5136a1c4319998719209.svg

<?xml version="1.0" encoding="us-ascii" standalone="no"?><svg xmlns="http://www.w3.org/2000/svg" xmlns:xlink="http://www.w3.org/1999/xlink" contentStyleType="text/css" height="374px" preserveAspectRatio="none" style="width:615px;height:374px;" version="1.1" viewBox="0 0 615 374" width="615px" zoomAndPan="magnify"><defs/><g><!--class azure_container_service_managed_cluster--><g id="elem_azure_container_service_managed_cluster"><rect codeLine="23" fill="#3D176E" height="39.7891" id="azure_container_service_managed_cluster" rx="2.5" ry="2.5" style="stroke:#000D19;stroke-width:0.5;" width="395" x="150.5" y="328.58"/><ellipse cx="165.5" cy="348.4745" fill="#ADD1B2" rx="11" ry="11" style="stroke:#181818;stroke-width:1.0;"/><path d="M168.4688,354.1152 Q167.8906,354.412 167.25,354.5527 Q166.6094,354.7089 165.9063,354.7089 Q163.4063,354.7089 162.0781,353.0683 Q160.7656,351.412 160.7656,348.287 Q160.7656,345.162 162.0781,343.5058 Q163.4063,341.8495 165.9063,341.8495 Q166.6094,341.8495 167.25,342.0058 Q167.9063,342.162 168.4688,342.4589 L168.4688,345.1777 Q167.8438,344.5995 167.25,344.3339 Q166.6563,344.0527 166.0313,344.0527 Q164.6875,344.0527 164,345.1308 Q163.3125,346.1933 163.3125,348.287 Q163.3125,350.3808 164,351.4589 Q164.6875,352.5214 166.0313,352.5214 Q166.6563,352.5214 167.25,352.2558 Q167.8438,351.9745 168.4688,351.3964 L168.4688,354.1152 Z " fill="#000000"/><text fill="#D9B8FF" font-family="Helvetica" font-size="17" lengthAdjust="spacing" textLength="353" x="184.5" y="354.3598">azure_container_service_managed_cluster</text></g><!--class managed_kubernetes_cluster_provider--><g id="elem_managed_kubernetes_cluster_provider"><rect codeLine="26" fill="#3D176E" height="39.7891" id="managed_kubernetes_cluster_provider" rx="2.5" ry="2.5" style="stroke:#000D19;stroke-width:0.5;" width="366" x="7" y="167.79"/><ellipse cx="22" cy="187.6845" fill="#ADD1B2" rx="11" ry="11" style="stroke:#181818;stroke-width:1.0;"/><path d="M24.9688,193.3252 Q24.3906,193.622 23.75,193.7627 Q23.1094,193.9189 22.4063,193.9189 Q19.9063,193.9189 18.5781,192.2783 Q17.2656,190.622 17.2656,187.497 Q17.2656,184.372 18.5781,182.7158 Q19.9063,181.0595 22.4063,181.0595 Q23.1094,181.0595 23.75,181.2158 Q24.4063,181.372 24.9688,181.6689 L24.9688,184.3877 Q24.3438,183.8095 23.75,183.5439 Q23.1563,183.2627 22.5313,183.2627 Q21.1875,183.2627 20.5,184.3408 Q19.8125,185.4033 19.8125,187.497 Q19.8125,189.5908 20.5,190.6689 Q21.1875,191.7314 22.5313,191.7314 Q23.1563,191.7314 23.75,191.4658 Q24.3438,191.1845 24.9688,190.6064 L24.9688,193.3252 Z " fill="#000000"/><text fill="#D9B8FF" font-family="Helvetica" font-size="17" lengthAdjust="spacing" textLength="324" x="41" y="193.5698">managed_kubernetes_cluster_provider</text></g><!--class microsoft_resource--><g id="elem_microsoft_resource"><rect codeLine="29" fill="#3D176E" height="39.7891" id="microsoft_resource" rx="2.5" ry="2.5" style="stroke:#000D19;stroke-width:0.5;" width="200" x="408" y="167.79"/><ellipse cx="423" cy="187.6845" fill="#ADD1B2" rx="11" ry="11" style="stroke:#181818;stroke-width:1.0;"/><path d="M425.9688,193.3252 Q425.3906,193.622 424.75,193.7627 Q424.1094,193.9189 423.4063,193.9189 Q420.9063,193.9189 419.5781,192.2783 Q418.2656,190.622 418.2656,187.497 Q418.2656,184.372 419.5781,182.7158 Q420.9063,181.0595 423.4063,181.0595 Q424.1094,181.0595 424.75,181.2158 Q425.4063,181.372 425.9688,181.6689 L425.9688,184.3877 Q425.3438,183.8095 424.75,183.5439 Q424.1563,183.2627 423.5313,183.2627 Q422.1875,183.2627 421.5,184.3408 Q420.8125,185.4033 420.8125,187.497 Q420.8125,189.5908 421.5,190.6689 Q422.1875,191.7314 423.5313,191.7314 Q424.1563,191.7314 424.75,191.4658 Q425.3438,191.1845 425.9688,190.6064 L425.9688,193.3252 Z " fill="#000000"/><text fill="#D9B8FF" font-family="Helvetica" font-size="17" lengthAdjust="spacing" textLength="158" x="442" y="193.5698">microsoft_resource</text></g><!--class resource--><g id="elem_resource"><rect codeLine="32" fill="#3D176E" height="39.7891" id="resource" rx="2.5" ry="2.5" style="stroke:#000D19;stroke-width:0.5;" width="113" x="291.5" y="7"/><ellipse cx="306.5" cy="26.8945" fill="#ADD1B2" rx="11" ry="11" style="stroke:#181818;stroke-width:1.0;"/><path d="M309.4688,32.5352 Q308.8906,32.832 308.25,32.9727 Q307.6094,33.1289 306.9063,33.1289 Q304.4063,33.1289 303.0781,31.4883 Q301.7656,29.832 301.7656,26.707 Q301.7656,23.582 303.0781,21.9258 Q304.4063,20.2695 306.9063,20.2695 Q307.6094,20.2695 308.25,20.4258 Q308.9063,20.582 309.4688,20.8789 L309.4688,23.5977 Q308.8438,23.0195 308.25,22.7539 Q307.6563,22.4727 307.0313,22.4727 Q305.6875,22.4727 305,23.5508 Q304.3125,24.6133 304.3125,26.707 Q304.3125,28.8008 305,29.8789 Q305.6875,30.9414 307.0313,30.9414 Q307.6563,30.9414 308.25,30.6758 Q308.8438,30.3945 309.4688,29.8164 L309.4688,32.5352 Z " fill="#000000"/><text fill="#D9B8FF" font-family="Helvetica" font-size="17" lengthAdjust="spacing" textLength="71" x="325.5" y="32.7798">resource</text></g><!--reverse link managed_kubernetes_cluster_provider to azure_container_service_managed_cluster--><g id="link_managed_kubernetes_cluster_provider_azure_container_service_managed_cluster"><path codeLine="35" d="M221.7565,220.5992 C252.1265,251.1192 298.46,297.69 328.87,328.25 " fill="none" id="managed_kubernetes_cluster_provider-backto-azure_container_service_managed_cluster" style="stroke:#FFAF37;stroke-width:2.0;"/><polygon fill="none" points="209.06,207.84,217.5034,224.8314,226.0096,216.3671,209.06,207.84" style="stroke:#FFAF37;stroke-width:2.0;"/></g><!--reverse link microsoft_resource to azure_container_service_managed_cluster--><g id="link_microsoft_resource_azure_container_service_managed_cluster"><path codeLine="36" d="M475.9244,220.5201 C445.1744,251.0401 398.16,297.69 367.37,328.25 " fill="none" id="microsoft_resource-backto-azure_container_service_managed_cluster" style="stroke:#FFAF37;stroke-width:2.0;"/><polygon fill="none" points="488.7,207.84,471.6977,216.2615,480.1511,224.7786,488.7,207.84" style="stroke:#FFAF37;stroke-width:2.0;"/></g><!--reverse link resource to managed_kubernetes_cluster_provider--><g id="link_resource_managed_kubernetes_cluster_provider"><path codeLine="37" d="M316.2435,59.8092 C285.8735,90.3292 239.54,136.9 209.13,167.46 " fill="none" id="resource-backto-managed_kubernetes_cluster_provider" style="stroke:#FFAF37;stroke-width:2.0;"/><polygon fill="none" points="328.94,47.05,311.9904,55.5771,320.4966,64.0414,328.94,47.05" style="stroke:#FFAF37;stroke-width:2.0;"/></g><!--reverse link resource to microsoft_resource--><g id="link_resource_microsoft_resource"><path codeLine="38" d="M380.0756,59.7301 C410.8256,90.2501 457.84,136.9 488.63,167.46 " fill="none" id="resource-backto-microsoft_resource" style="stroke:#FFAF37;stroke-width:2.0;"/><polygon fill="none" points="367.3,47.05,375.8489,63.9886,384.3023,55.4715,367.3,47.05" style="stroke:#FFAF37;stroke-width:2.0;"/></g><!--SRC=[bPDDRy8m38Rl_HMHE2F1q5QGTc6Lfks2fh5xPH87ehP9vQH5iEs_hnqmXOQlNVq-jXz7xKe9P5YKRiCAB1P8DhAPqYKG56nAPDQ9oGsndfGWHt4tV3RQNGLcK21xmRn6fpXqYO-Lufb6QzcT5pq1pvPaAYrsuns1jas4sdbKaeErK-T8BIg7deoOBCPITidkqDv83EC733130ccF30O3CPnqaQkhBjxzHypL5jdGVxIPSHXe1Yj-gOkMBU591eSUyhEERo24qajsxzNUTqwaaOxgynK8isvf2RdrrrY7XCPjIao2gt0o5Z8-2R-UWoFUFXs3RKMOyiOVL2EJMgHQSKmBqB14aVAyQeUnpoZwthSSegngFdAD3ks1IaioTVCR7EEAax56kfJGceeu-kbnxPRHZr_zVlzMx-Z4zlyDwBJTO1Yq10hH3m00]--></g></svg>

<svg xmlns="http://www.w3.org/2000/svg" width="615" height="374" viewBox="0 0 615 374"><rect width="395" height="39.789" x="150.5" y="328.58" fill="#3D176E" rx="2.5" ry="2.5" style="stroke:#000d19;stroke-width:.5"/><circle cx="165.5" cy="348.474" r="11" fill="#ADD1B2" style="stroke:#181818;stroke-width:1"/><path d="M168.469 354.115q-.578.297-1.219.438-.64.156-1.344.156-2.5 0-3.828-1.64-1.312-1.657-1.312-4.782t1.312-4.781q1.328-1.656 3.828-1.656.703 0 1.344.156.656.156 1.219.453v2.719q-.625-.579-1.219-.844-.594-.281-1.219-.281-1.344 0-2.031 1.078-.687 1.062-.687 3.156t.687 3.172q.688 1.062 2.031 1.062.625 0 1.219-.265.594-.281 1.219-.86z"/><text x="184.5" y="354.36" fill="#D9B8FF" font-family="Helvetica" font-size="17" textLength="353">azure_container_service_managed_cluster</text><rect width="366" height="39.789" x="7" y="167.79" fill="#3D176E" rx="2.5" ry="2.5" style="stroke:#000d19;stroke-width:.5"/><circle cx="22" cy="187.685" r="11" fill="#ADD1B2" style="stroke:#181818;stroke-width:1"/><path d="M24.969 193.325q-.578.297-1.219.438-.64.156-1.344.156-2.5 0-3.828-1.64-1.312-1.657-1.312-4.782t1.312-4.781q1.328-1.656 3.828-1.656.703 0 1.344.156.656.156 1.219.453v2.719q-.625-.578-1.219-.844-.594-.281-1.219-.281-1.343 0-2.031 1.078-.687 1.062-.687 3.156t.687 3.172q.688 1.062 2.031 1.062.625 0 1.219-.265.594-.281 1.219-.86z"/><text x="41" y="193.57" fill="#D9B8FF" font-family="Helvetica" font-size="17" textLength="324">managed_kubernetes_cluster_provider</text><rect width="200" height="39.789" x="408" y="167.79" fill="#3D176E" rx="2.5" ry="2.5" style="stroke:#000d19;stroke-width:.5"/><circle cx="423" cy="187.685" r="11" fill="#ADD1B2" style="stroke:#181818;stroke-width:1"/><path d="M425.969 193.325q-.578.297-1.219.438-.64.156-1.344.156-2.5 0-3.828-1.64-1.312-1.657-1.312-4.782t1.312-4.781q1.328-1.656 3.828-1.656.703 0 1.344.156.656.156 1.219.453v2.719q-.625-.578-1.219-.844-.594-.281-1.219-.281-1.344 0-2.031 1.078-.687 1.062-.687 3.156t.687 3.172q.688 1.062 2.031 1.062.625 0 1.219-.265.594-.281 1.219-.86z"/><text x="442" y="193.57" fill="#D9B8FF" font-family="Helvetica" font-size="17" textLength="158">microsoft_resource</text><rect width="113" height="39.789" x="291.5" y="7" fill="#3D176E" rx="2.5" ry="2.5" style="stroke:#000d19;stroke-width:.5"/><circle cx="306.5" cy="26.895" r="11" fill="#ADD1B2" style="stroke:#181818;stroke-width:1"/><path d="M309.469 32.535q-.578.297-1.219.438-.64.156-1.344.156-2.5 0-3.828-1.64-1.312-1.657-1.312-4.782t1.312-4.781q1.328-1.656 3.828-1.656.703 0 1.344.156.656.156 1.219.453v2.719q-.625-.578-1.219-.844-.594-.281-1.219-.281-1.344 0-2.031 1.078-.687 1.062-.687 3.156t.687 3.172q.688 1.062 2.031 1.062.625 0 1.219-.265.594-.281 1.219-.86z"/><text x="325.5" y="32.78" fill="#D9B8FF" font-family="Helvetica" font-size="17" textLength="71">resource</text><path fill="none" d="M221.757 220.6c30.37 30.52 76.703 77.09 107.113 107.65M209.06 207.84l8.443 16.991 8.507-8.464zm266.864 12.68c-30.75 30.52-77.764 77.17-108.554 107.73M488.7 207.84l-17.002 8.422 8.453 8.517zM316.244 59.81c-30.37 30.52-76.704 77.09-107.114 107.65M328.94 47.05l-16.95 8.527 8.507 8.464zm51.136 12.68c30.75 30.52 77.764 77.17 108.554 107.73M367.3 47.05l8.549 16.939 8.453-8.517z" style="stroke:#ffaf37;stroke-width:2"/></svg>
